X:1
T:Title
%%score { 1 | ( 2 3 ) }
L:1/8
M:6/8
K:C
V:1 treble nm="Grand Piano"
V:2 bass 
V:3 bass 
V:1
 z3 z2[Q:1/4=90] E | E2 E EEF | G3 [Ec]2 [Ec] | [FB][B,D][CE] [DF]2 [FA] | %4
[M:5/8] [EG]-[EG]- [EG]3 |[M:1/8] E |[M:3/4] EE EE FE | D3 B2 c | BB A E2 ^F | %9
[M:5/8] [G,B,G]-[G,B,G]- [G,B,G]3 |[M:1/8] G |[M:3/4] GB c d2 G | [Ee]3 [Ec]2 [EG] | %13
 AB c [^Fd]2 [Fe] |[M:5/8] d-d- d3 |[M:1/8] E |[M:3/4] E[DF] [EG] c2 B | B3 A2 A | GG G A2 G | %19
[M:5/8] [Ec]-[Ec]- [Ec]3 |] %20
V:2
 z3 z2 [C,G,C] | [C,G,C]2 [C,G,C] [C,G,C][C,G,C][D,G,C] | [E,G,C]3 [C,G,]2 [C,G,] | %3
 [G,,G,][G,,G,][G,,G,] [G,,G,]2 [G,,G,] |[M:5/8] [C,G,]-[C,G,]- [C,G,]3 |[M:1/8] [C,G,C] | %6
[M:3/4] CC [C,G,C][C,G,C] [C,A,C][C,G,C] | [D,G,B,]3 [D,G,D]2 [D,A,E] | %8
 DD [D,^F,C] [D,A,C]2 [D,A,C] |[M:5/8] G,,-G,,- G,,3 |[M:1/8] G, | %11
[M:3/4] G,[K:treble][G,DF] [G,CE] [G,B,F]2 [G,B,F] | [C,C]3 [C,C]2 [C,C] | %13
 [F,CF][F,B,F] [F,A,F] [D,A,]2 [D,C] |[M:5/8][K:treble] [G,B,F]-[G,B,F]- [G,B,F]3 | %15
[M:1/8][K:bass] [C,C] |[M:3/4] [C,C][C,C] [C,C] [E,G,C]2 [E,G,C] | %17
 [F,A,C]3[K:treble] [F,CF]2 [F,CF] | [B,D][CE] [G,DF] [G,B,F]2 [G,B,F] | %19
[M:5/8][K:bass] [C,C]-[C,C]- [C,C]3 |] %20
V:3
 x6 | x6 | x6 | x6 |[M:5/8] x5 |[M:1/8] x |[M:3/4] [C,G,]2 z2 z2 | x6 | [D,G,]2 z2 z2 |[M:5/8] x5 | %10
[M:1/8] x |[M:3/4] x[K:treble] x5 | x6 | x6 |[M:5/8][K:treble] x5 |[M:1/8][K:bass] x |[M:3/4] x6 | %17
 x3[K:treble] x3 | G,2 z2 z2 |[M:5/8][K:bass] x5 |] %20

